!!! OTL: Berkowitz509
!!! Chapter: 1
!!! Section: IV
!!! Page: 128
!!! Mode: 
!!! Encoder: DJB
**kern
*staff1
*I"Piano
=1-
*clefG2
*k[b-e-a-d-]
*f:
*M9/8
4.f/
8a-/L
8g/
8f/J
8cc\L
8an\
8b-\J
=2
[4.dd-\
4dd-\]
8cc\
8bn\L
8ddn\
8ff\J
=3
8aa-\L
8gg\
8ff#\J
[4.gg\
8gg\L]
8ffn\
8ee-\J
=4
4ddn\
[8dd-\
8dd-\L]
8ff\
8dd-\J
4cc\
8b-\
=5
4a-/
8ee-\
4ddn\
8a-/
4dd-\
8ff\
=6
!!linebreak:original
8een\L
8g\
8a-\J
[4.b-\
16b-/LL]
16cc/
16an/
16b-/
16a-/
16f/JJ
=7
[4.cc\
8cc/L]
16b-/L
16a-/
16g/
16a-/JJ
[4en/
16e/LL]
16f/JJ
=8
2.f/
4r
8r
==
*-
